X:44
T: HERAUS HERAUS DIE KLINGEN LASST ROSS UND KLEPPER SPRINGEN
N: B0053
O: Europa, Mitteleuropa, Deutschland
R: Kriegs -, Sieges -, Soldaten - Lied
M: 6/8
L: 1/16
K: F
F2 | F4F2F4F2 | F6C4
C2 | A4A2A4A2 | A6F4
F2 | G4G2=B4B2 | c6z4
d2 | e4c2d4=B2 | c4z6
c2 | c4A2d4c2 | c6B4
B2 | B4G2c4B2 | B6A4
F2 | F4F2f4d2 | c6
B6 | A4A2c4c2 | F8
c3B | A2A2G2G2 | F2z2
c3B | A2A2G2G2 | F2z4

@@@ Tune index: 1847
